X: 5395
T: Buddy MacMaster's
R: jig
M: 6/8
K: Dmajor
|:A|DFA dfe|dcd AFD|GBG FAF|ECA, A,B,C|
DFA dfe|dcd AFD|GBG FAG|1 FDC D2:|2 FDD D||
|:Ag|fdf afd|BdB Ade|fdf agf|gee e2 g|
[1 fdf afd|BdB AFG|Adf gfe|fdd d:|
[2 fdf ece|dcd AFD|GBA GFE|FDD D2||

